X: 24611
T: Mac Suibhn
R: jig
M: 6/8
K: Dmajor
DDF ABd|ABd BAB|dBA FDD|EFE EDE|
DDF ABd|ABd BAB|dBA FDD|EFE D3:|
Add efe|faf gfe|dBA FDD|EFE EDE|
Add efe|faf gfe|dBA FDD|EFE D3:|

